SVG_Azure_All/Recovery Services Restore Point.svg

<?xml version="1.0" encoding="UTF-8" standalone="no"?>
<!-- Generated by Microsoft Visio, SVG Export Recovery Services Restore Point.svg Page-1 -->

<svg
   xmlns:dc="http://purl.org/dc/elements/1.1/"
   xmlns:cc="http://creativecommons.org/ns#"
   xmlns:rdf="http://www.w3.org/1999/02/22-rdf-syntax-ns#"
   xmlns:svg="http://www.w3.org/2000/svg"
   xmlns="http://www.w3.org/2000/svg"
   xmlns:sodipodi="http://sodipodi.sourceforge.net/DTD/sodipodi-0.dtd"
   xmlns:inkscape="http://www.inkscape.org/namespaces/inkscape"
   width="0.80467165in"
   height="0.78741747in"
   viewBox="0 0 57.936578 56.694369"
   xml:space="preserve"
   class="st7"
   version="1.1"
   id="svg60"
   sodipodi:docname="Recovery Services Restore Point.svg"
   style="font-size:12px;overflow:visible;color-interpolation-filters:sRGB;fill:none;fill-rule:evenodd;stroke-linecap:square;stroke-miterlimit:3"
   inkscape:version="0.92.5 (2060ec1f9f, 2020-04-08)"><metadata
   id="metadata64"><rdf:RDF><cc:Work
       rdf:about=""><dc:format>image/svg+xml</dc:format><dc:type
         rdf:resource="http://purl.org/dc/dcmitype/StillImage" /></cc:Work></rdf:RDF></metadata><sodipodi:namedview
   pagecolor="#ffffff"
   bordercolor="#666666"
   borderopacity="1"
   objecttolerance="10"
   gridtolerance="10"
   guidetolerance="10"
   inkscape:pageopacity="0"
   inkscape:pageshadow="2"
   inkscape:window-width="640"
   inkscape:window-height="480"
   id="namedview62"
   showgrid="false"
   inkscape:zoom="1.4193119"
   inkscape:cx="38.637255"
   inkscape:cy="37.792016"
   inkscape:window-x="0"
   inkscape:window-y="0"
   inkscape:window-maximized="0"
   inkscape:current-layer="svg60" />
	<style
   type="text/css"
   id="style2">
	<![CDATA[
		.st1 {fill:#86d633;stroke:none;stroke-linecap:butt;stroke-width:34}
		.st2 {fill:url(#grad0-8);stroke:none;stroke-linecap:butt;stroke-width:34}
		.st3 {fill:url(#grad0-12);stroke:none;stroke-linecap:butt;stroke-width:34}
		.st4 {fill:#c3f1ff;stroke:none;stroke-linecap:butt;stroke-width:34}
		.st5 {fill:url(#grad0-18);stroke:none;stroke-linecap:butt;stroke-width:34}
		.st6 {fill:#ffffff;stroke:none;stroke-linecap:butt;stroke-width:34}
		.st7 {fill:none;fill-rule:evenodd;font-size:12px;overflow:visible;stroke-linecap:square;stroke-miterlimit:3}
	]]>
	</style>

	<defs
   id="Patterns_And_Gradients">
		<linearGradient
   id="grad0-8"
   x1="-2.0762931"
   y1="74.699935"
   x2="49.5424"
   y2="74.699935"
   gradientTransform="scale(1.0016083,0.9983943)"
   gradientUnits="userSpaceOnUse">
			<stop
   offset="0"
   stop-color="#0078d4"
   stop-opacity="1"
   id="stop4" />
			<stop
   offset="1"
   stop-color="#5ea0ef"
   stop-opacity="1"
   id="stop6" />
		</linearGradient>
		<linearGradient
   id="grad0-12"
   x1="0"
   y1="79.516154"
   x2="14.899342"
   y2="79.516154"
   gradientTransform="scale(0.7570804,1.3208637)"
   gradientUnits="userSpaceOnUse">
			<stop
   offset="0"
   stop-color="#32bedd"
   stop-opacity="1"
   id="stop9" />
			<stop
   offset="1"
   stop-color="#9cebff"
   stop-opacity="1"
   id="stop11" />
		</linearGradient>
		<linearGradient
   id="grad0-18"
   x1="0"
   y1="79.516154"
   x2="14.899342"
   y2="79.516154"
   gradientTransform="scale(0.7570804,1.3208637)"
   gradientUnits="userSpaceOnUse">
			<stop
   offset="0"
   stop-color="#32bedd"
   stop-opacity="1"
   id="stop14" />
			<stop
   offset="1"
   stop-color="#9cebff"
   stop-opacity="1"
   id="stop16" />
		</linearGradient>
	</defs>
	<g
   id="g58"
   transform="translate(-34.001006,-34.0043)">
		<title
   id="title20">Page-1</title>
		<g
   id="group2034-1"
   transform="translate(34.9088,-34.0157)">
			<title
   id="title22">Recovery Services Restore Point</title>
			<g
   id="group2035-2">
				<title
   id="title24">Sheet.2035</title>
				<g
   id="shape2036-3">
					<title
   id="title26">Sheet.2036</title>
					<path
   d="m 25.09,68.02 a 26.6759,26.5908 -180 0 0 -9.56,48.3 l 0.91,-2.3 a 0.503715,0.502108 0 0 1 0.874505,-0.12553 L 23.91,122.38 a 0.521205,0.519543 0 0 1 -0.08395,0.72178 0.503715,0.502108 0 0 1 -0.248361,0.10809 L 12.99,124.71 a 0.510711,0.509082 0 0 1 -0.573676,-0.44283 0.524703,0.52303 0 0 1 0.03148,-0.25803 L 13.79,120.61 A 31.0379,30.9389 0 0 1 0,101.92 27.1446,27.0581 0 0 1 18.97,68.91 26.3541,26.27 0 0 1 25.09,68.02 Z"
   class="st1"
   id="path28"
   inkscape:connector-curvature="0"
   style="fill:#86d633;stroke:none;stroke-width:34;stroke-linecap:butt" />
				</g>
				<g
   id="shape2037-5"
   transform="translate(7.4067,-5.97648)">
					<title
   id="title31">Sheet.2037</title>
					<path
   d="m 23.78,74.58 a 25.8364,25.754 -180 0 0 -18.68,43.57 24.766,24.687 -180 0 0 2.41,2.1 l 0.29,-0.74 a 1.84696,1.84106 0 0 1 1.75,-1.16 1.83996,1.83409 0 0 1 1.41,0.71 l 4.39,5.65 a 25.8504,25.7679 -180 1 0 8.43,-50.13 z"
   class="st2"
   id="path33"
   inkscape:connector-curvature="0"
   style="fill:url(#grad0-8);stroke:none;stroke-width:34;stroke-linecap:butt" />
				</g>
				<g
   id="shape2038-9"
   transform="translate(31.1849,-17.6052)">
					<title
   id="title36">Sheet.2038</title>
					<path
   d="m 11.28,105.03 v 13.08 L 0,124.71 v -13.12 z"
   class="st3"
   id="path38"
   inkscape:connector-curvature="0"
   style="fill:url(#grad0-12);stroke:none;stroke-width:34;stroke-linecap:butt" />
				</g>
				<g
   id="shape2039-13"
   transform="translate(19.9072,-30.6844)">
					<title
   id="title41">Sheet.2039</title>
					<path
   d="M 22.56,118.11 11.32,124.71 0,118.11 11.32,111.55 Z"
   class="st4"
   id="path43"
   inkscape:connector-curvature="0"
   style="fill:#c3f1ff;stroke:none;stroke-width:34;stroke-linecap:butt" />
				</g>
				<g
   id="shape2040-15"
   transform="translate(19.9072,-17.6052)">
					<title
   id="title46">Sheet.2040</title>
					<path
   d="m 11.28,111.63 v 13.08 L 0,118.11 v -13.08 z"
   class="st5"
   id="path48"
   inkscape:connector-curvature="0"
   style="fill:url(#grad0-18);stroke:none;stroke-width:34;stroke-linecap:butt" />
				</g>
				<g
   id="shape2041-19"
   transform="translate(13.7857,-14.202)">
					<title
   id="title51">Sheet.2041</title>
					<path
   d="M 9.91,92.47 H 1.92 A 1.91692,1.9108 -180 0 0 0,94.38 v 7.99 a 0.958458,0.955401 -180 0 0 0.958458,0.95889 L 1.6,103.33 a 0.958458,0.955401 -180 0 0 0.958458,-0.95889 L 2.56,94.99 h 7.35 a 0.958458,0.955401 -180 0 0 0.930474,-0.955401 L 10.84,93.42 A 0.958458,0.955401 -180 0 0 9.909526,92.464599 Z m 0,29.52 H 2.53 v -7.33 A 0.958458,0.955401 -180 0 0 1.571542,113.7046 L 0.96,113.7 a 0.958458,0.955401 -180 0 0 -0.958458,0.9554 L 0,122.77 a 1.91692,1.9108 -180 0 0 1.89,1.94 h 8.02 a 0.986442,0.983296 -180 0 0 0.940968,-1.03211 L 10.84,123.58 v -0.64 A 0.958458,0.955401 -180 0 0 9.909526,121.9846 Z M 32.74,92.56 h -7.88 a 0.958458,0.955401 -180 0 0 -0.958458,0.955401 L 23.9,94.12 a 0.958458,0.955401 -180 0 0 0.867509,1.03909 0.884999,0.882176 -180 0 0 0.09095,0.0035 L 32.21,95.16 v 7.27 a 0.958458,0.955401 -180 0 0 0.958458,0.9554 L 33.84,103.39 a 0.958458,0.955401 -180 0 0 0.958458,-0.9554 L 34.8,94.47 a 1.91692,1.9108 -180 0 0 -1.91,-1.92 2.16877,2.16186 -180 0 0 -0.15,0.01 z m 0.98,21.2 h -0.6 a 0.958458,0.955401 -180 0 0 -0.958458,0.9554 L 32.16,122.07 h -7.3 a 0.958458,0.955401 -180 0 0 -0.958458,0.9554 L 23.9,123.67 a 0.958458,0.955401 -180 0 0 0.958458,0.9554 L 32.85,124.62 a 1.9484,1.94218 -180 0 0 1.95,-1.91 v -7.99 a 0.958458,0.955401 -180 0 0 -1.07739,-0.9554 z"
   class="st6"
   id="path53"
   inkscape:connector-curvature="0"
   style="fill:#ffffff;stroke:none;stroke-width:34;stroke-linecap:butt" />
				</g>
			</g>
		</g>
	</g>
</svg>

<?xml version="1.0" encoding="UTF-8" standalone="no"?>
<!DOCTYPE svg PUBLIC "-//W3C//DTD SVG 1.1//EN" "http://www.w3.org/Graphics/SVG/1.1/DTD/svg11.dtd">
<!-- Generated by Microsoft Visio, SVG Export Recovery Services Restore Point.svg Page-1 -->
<svg xmlns="http://www.w3.org/2000/svg" xmlns:xlink="http://www.w3.org/1999/xlink" xmlns:ev="http://www.w3.org/2001/xml-events"
		width="1.74941in" height="1.73206in" viewBox="0 0 125.958 124.709" xml:space="preserve" color-interpolation-filters="sRGB"
		class="st7">
	<style type="text/css">
	<![CDATA[
		.st1 {fill:#86d633;stroke:none;stroke-linecap:butt;stroke-width:34}
		.st2 {fill:url(#grad0-8);stroke:none;stroke-linecap:butt;stroke-width:34}
		.st3 {fill:url(#grad0-12);stroke:none;stroke-linecap:butt;stroke-width:34}
		.st4 {fill:#c3f1ff;stroke:none;stroke-linecap:butt;stroke-width:34}
		.st5 {fill:url(#grad0-18);stroke:none;stroke-linecap:butt;stroke-width:34}
		.st6 {fill:#ffffff;stroke:none;stroke-linecap:butt;stroke-width:34}
		.st7 {fill:none;fill-rule:evenodd;font-size:12px;overflow:visible;stroke-linecap:square;stroke-miterlimit:3}
	]]>
	</style>

	<defs id="Patterns_And_Gradients">
		<linearGradient id="grad0-8" x1="0" y1="0" x2="1" y2="0" gradientTransform="rotate(-90 0.5 0.5)">
			<stop offset="0" stop-color="#0078d4" stop-opacity="1"/>
			<stop offset="1" stop-color="#5ea0ef" stop-opacity="1"/>
		</linearGradient>
		<linearGradient id="grad0-12" x1="0" y1="0" x2="1" y2="0" gradientTransform="rotate(-158.85217954953 0.5 0.5)">
			<stop offset="0" stop-color="#32bedd" stop-opacity="1"/>
			<stop offset="1" stop-color="#9cebff" stop-opacity="1"/>
		</linearGradient>
		<linearGradient id="grad0-18" x1="0" y1="0" x2="1" y2="0" gradientTransform="rotate(-90 0.5 0.5)">
			<stop offset="0" stop-color="#32bedd" stop-opacity="1"/>
			<stop offset="1" stop-color="#9cebff" stop-opacity="1"/>
		</linearGradient>
	</defs>
	<g>
		<title>Page-1</title>
		<g id="group2019-1" transform="translate(34.9088,-34.0157)">
			<title>Recovery Services Restore Point</title>
			<g id="group2020-2">
				<title>Sheet.2020</title>
				<g id="shape2021-3">
					<title>Sheet.2021</title>
					<path d="M25.09 68.02 A26.6759 26.5908 -180 0 0 15.53 116.32 L16.44 114.02 a0.503715 0.502108 0 0 1 0.874505
								 -0.125527 L23.91 122.38 a0.521205 0.519543 0 0 1 -0.0839525 0.721781 a0.503715 0.502108 0 0 1 -0.24836
								 0.108093 L12.99 124.71 a0.510711 0.509082 0 0 1 -0.573676 -0.442832 a0.524703 0.52303 0 0 1 0.0314822
								 -0.258028 L13.79 120.61 A31.0379 30.9389 0 0 1 -0 101.92 A27.1446 27.0581 0 0 1 18.97 68.91 A26.3541
								 26.27 0 0 1 25.09 68.02 L25.09 68.02 Z" class="st1"/>
				</g>
				<g id="shape2022-5" transform="translate(7.4067,-5.97648)">
					<title>Sheet.2022</title>
					<path d="M23.78 74.58 A25.8364 25.754 -180 0 0 5.1 118.15 A24.766 24.687 -180 0 0 7.51 120.25 L7.8 119.51 A1.84696
								 1.84106 0 0 1 9.55 118.35 A1.83996 1.83409 0 0 1 10.96 119.06 L15.35 124.71 A25.8504 25.7679 -180
								 1 0 23.78 74.58 Z" class="st2"/>
				</g>
				<g id="shape2023-9" transform="translate(31.1849,-17.6052)">
					<title>Sheet.2023</title>
					<path d="M11.28 105.03 L11.28 118.11 L0 124.71 L0 111.59 L11.28 105.03 Z" class="st3"/>
				</g>
				<g id="shape2024-13" transform="translate(19.9072,-30.6844)">
					<title>Sheet.2024</title>
					<path d="M22.56 118.11 L11.32 124.71 L0 118.11 L11.32 111.55 L22.56 118.11 Z" class="st4"/>
				</g>
				<g id="shape2025-15" transform="translate(19.9072,-17.6052)">
					<title>Sheet.2025</title>
					<path d="M11.28 111.63 L11.28 124.71 L0 118.11 L0 105.03 L11.28 111.63 Z" class="st5"/>
				</g>
				<g id="shape2026-19" transform="translate(13.7857,-14.202)">
					<title>Sheet.2026</title>
					<path d="M9.91 92.47 L1.92 92.47 A1.91692 1.9108 -180 0 0 -0 94.38 L0 102.37 a0.958458 0.955401 -180 0 0 0.958458
								 0.958887 L1.6 103.33 a0.958458 0.955401 -180 0 0 0.958458 -0.958887 L2.56 94.99 L9.91 94.99 a0.958458
								 0.955401 -180 0 0 0.930474 -0.955401 L10.84 93.42 a0.958458 0.955401 -180 0 0 -0.930474 -0.955401
								 ZM9.91 121.99 L2.53 121.99 L2.53 114.66 a0.958458 0.955401 -180 0 0 -0.958458 -0.955401 L0.96 113.7
								 a0.958458 0.955401 -180 0 0 -0.958458 0.955401 L0 122.77 A1.91692 1.9108 -180 0 0 1.89 124.71 L9.91
								 124.71 a0.986442 0.983296 -180 0 0 0.940968 -1.03211 L10.84 123.58 L10.84 122.94 a0.958458 0.955401
								 -180 0 0 -0.930474 -0.955401 ZM32.74 92.56 L24.86 92.56 a0.958458 0.955401 -180 0 0 -0.958458 0.955401
								 L23.9 94.12 a0.958458 0.955401 -180 0 0 0.867509 1.03909 a0.884999 0.882176 -180 0 0 0.0909486 0.00348686
								 L32.21 95.16 L32.21 102.43 a0.958458 0.955401 -180 0 0 0.958458 0.955401 L33.84 103.39 a0.958458
								 0.955401 -180 0 0 0.958458 -0.955401 L34.8 94.47 A1.91692 1.9108 -180 0 0 32.89 92.55 A2.16877 2.16186
								 -180 0 0 32.74 92.56 ZM33.72 113.76 L33.12 113.76 a0.958458 0.955401 -180 0 0 -0.958458 0.955401
								 L32.16 122.07 L24.86 122.07 a0.958458 0.955401 -180 0 0 -0.958458 0.955401 L23.9 123.67 a0.958458
								 0.955401 -180 0 0 0.958458 0.955401 L32.85 124.62 A1.9484 1.94218 -180 0 0 34.8 122.71 L34.8 114.72
								 a0.958458 0.955401 -180 0 0 -1.07739 -0.955401 Z" class="st6"/>
				</g>
			</g>
		</g>
	</g>
</svg>
